build/images/standalone/common/sitelogo.svg

<?xml version="1.0" encoding="UTF-8"?>
<svg width="80px" height="75px" viewBox="0 0 80 75" version="1.1" xmlns="http://www.w3.org/2000/svg" xmlns:xlink="http://www.w3.org/1999/xlink">
    <!-- Generator: sketchtool 44.1 (41455) - http://www.bohemiancoding.com/sketch -->
    <title>common/sitelogo</title>
    <desc>Created with sketchtool.</desc>
    <defs></defs>
    <g id="Symbols" stroke="none" stroke-width="1" fill="none" fill-rule="evenodd">
        <g id="nav" transform="translate(-20.000000, -20.000000)" fill-rule="nonzero">
            <g id="common/sitelogo" transform="translate(20.000000, 20.000000)">
                <polygon id="Shape" fill="#1A274B" points="16.3700441 14.1901408 8.21145374 0.0176056338 0 14.1725352 7.50660793 14.1901408 7.48898678 24.4366197 0.405286344 24.4190141 0.405286344 25.7922535 7.48898678 25.7922535 7.48898678 34.9295775 0.123348018 37.1126761 0.49339207 38.415493 16.2114537 33.7852113 15.8237885 32.4823944 8.84581498 34.5422535 8.86343612 25.7922535 15.9471366 25.8098592 15.9471366 24.4366197 8.86343612 24.4366197 8.86343612 14.1901408"></polygon>
                <polygon id="Shape" fill="#1A274B" points="36.8986784 19.4542254 36.8986784 18.0985915 24.5462555 18.0809859 23.9118943 14.2077465 33.6740088 14.2077465 33.6740088 12.8521127 23.6828194 12.834507 21.9559471 2.07746479 20.5991189 2.30633803 22.30837 12.834507 18.1321586 12.834507 18.1321586 14.1901408 22.5374449 14.2077465 23.154185 18.0809859 18.1321586 18.0633803 18.1321586 19.4366197 23.3832599 19.4366197 25.0572687 29.7711268 18.1145374 31.8133803 18.5022026 33.1161972 25.2687225 31.1267606 26.4493392 38.4330986 27.8061674 38.2042254 26.5903084 30.7394366 36.4933921 27.8169014 36.1057269 26.5140845 26.3612335 29.3661972 24.7577093 19.4366197"></polygon>
                <ellipse id="Oval" fill="#1A274B" transform="translate(3.333729, 29.947573) rotate(-89.932661) translate(-3.333729, -29.947573) " cx="3.33372913" cy="29.9475731" rx="1.42731376" ry="1.42605732"></ellipse>
                <ellipse id="Oval" fill="#1A274B" transform="translate(13.014537, 29.959558) rotate(-89.932071) translate(-13.014537, -29.959558) " cx="13.0145368" cy="29.9595577" rx="1.42731378" ry="1.42605734"></ellipse>
                <ellipse id="Oval" fill="#1A274B" transform="translate(28.269360, 5.118401) rotate(-89.932231) translate(-28.269360, -5.118401) " cx="28.2693602" cy="5.11840126" rx="3.03083912" ry="3.02817113"></ellipse>
                <path d="M61.3039648,19.4190141 L79.9118943,19.4366197 L79.9118943,18.0809859 L62.4493392,18.0633803 L64.1409692,16.056338 L74.9955947,16.0739437 L74.9955947,14.7183099 L74.9955947,14.7183099 L74.9955947,9.33098592 L74.9955947,9.33098592 L74.9955947,8.92605634 L74.9955947,1.91901408 L73.6387665,1.91901408 L73.6387665,1.91901408 L58.4317181,1.90140845 L58.4140969,16.056338 L59.7709251,16.056338 L59.7709251,16.056338 L62.3612335,16.056338 L60.6696035,18.0633803 L53.4977974,18.0633803 L53.4977974,19.4190141 L59.5242291,19.4190141 L53.4977974,26.5492958 L54.5374449,27.4295775 L57.6563877,23.7323944 L62.8898678,23.7323944 L62.8722467,36.6725352 L64.2290749,36.6725352 L64.246696,23.7323944 L69.2334802,23.7323944 L69.215859,36.6725352 L70.5726872,36.6725352 L70.5903084,23.7323944 L78.5198238,23.75 L78.5022026,36.6901408 L79.8590308,36.6901408 L79.876652,22.3767606 L78.5198238,22.3767606 L78.5198238,22.3767606 L70.1674009,22.3591549 L69.215859,22.3591549 L69.215859,22.3591549 L58.7665198,22.3415493 L61.3039648,19.4190141 Z M73.6563877,7.95774648 L59.8061674,7.94014085 L59.8061674,3.23943662 L73.6563877,3.25704225 L73.6563877,7.95774648 Z M59.7885463,14.6830986 L59.7885463,9.29577465 L73.6387665,9.31338028 L73.6387665,14.7007042 L63.5242291,14.6830986 L63.5242291,14.6830986 L63.5242291,14.6830986 L59.7885463,14.6830986 Z" id="Shape" fill="#1A274B"></path>
                <ellipse id="Oval" fill="#1A274B" transform="translate(51.043410, 4.906581) rotate(-89.932232) translate(-51.043410, -4.906581) " cx="51.0434098" cy="4.9065812" rx="3.03083912" ry="3.02817113"></ellipse>
                <ellipse id="Oval" fill="#1A274B" transform="translate(45.961739, 13.003241) rotate(-89.932231) translate(-45.961739, -13.003241) " cx="45.9617394" cy="13.0032409" rx="3.03083912" ry="3.02817113"></ellipse>
                <ellipse id="Oval" fill="#1A274B" transform="translate(47.986295, 31.595057) rotate(-89.932157) translate(-47.986295, -31.595057) " cx="47.9862953" cy="31.5950572" rx="5.09251458" ry="5.08803174"></ellipse>
                <polygon id="Shape" fill="#9B4124" points="1.83259912 61.0035211 14.3788546 46.1795775 13.3920705 45.334507 0.845814978 60.1760563 0.845814978 60.1760563 0 61.1619718 15.7180617 74.4366197 16.5638767 73.4330986"></polygon>
                <ellipse id="Oval" fill="#9B4124" transform="translate(18.267249, 47.652732) rotate(-44.935177) translate(-18.267249, -47.652732) " cx="18.2672493" cy="47.6527324" rx="2.37883333" ry="2.37673929"></ellipse>
                <ellipse id="Oval" fill="#9B4124" transform="translate(20.865734, 53.626183) rotate(-44.935177) translate(-20.865734, -53.626183) " cx="20.8657339" cy="53.6261831" rx="2.37883333" ry="2.37673929"></ellipse>
                <ellipse id="Oval" fill="#9B4124" transform="translate(39.685454, 47.695431) rotate(-44.935177) translate(-39.685454, -47.695431) " cx="39.6854537" cy="47.6954313" rx="2.37883333" ry="2.37673929"></ellipse>
                <path d="M43.5418502,56.9542254 L32.2995595,56.9366197 L32.3171806,45.2992958 L31.0837004,45.2992958 L31.0660793,56.9366197 L31.0660793,56.9366197 L31.0660793,58.1690141 L43.5594714,58.1866197 L43.5418502,74.806338 C48.4757709,74.806338 52.4757709,70.8274648 52.4933921,65.8978873 C52.4757709,60.9683099 48.4757709,56.971831 43.5418502,56.9542254 Z" id="Shape" fill="#9B4124"></path>
                <path d="M63.277533,65.8978873 L63.2951542,45.3169014 L62.0440529,45.3169014 L62.0264317,65.8978873 C62.0264317,70.8274648 66.0264317,74.8415493 70.9603524,74.8415493 C75.8942731,74.8415493 79.9118943,70.8450704 79.9118943,65.915493 L63.277533,65.8978873 Z" id="Shape" fill="#9B4124"></path>
            </g>
        </g>
    </g>
</svg>

<svg width="80" height="75" viewBox="0 0 80 75" xmlns="http://www.w3.org/2000/svg"><title>common/sitelogo</title><g fill="none"><path fill="#1A274B" d="M16.37 14.19L8.211.018 0 14.173l7.507.017-.018 10.247-7.084-.018v1.373H7.49v9.138L.123 37.113l.37 1.302 15.718-4.63-.387-1.303-6.978 2.06.017-8.75 7.084.018v-1.373H8.863V14.19zm20.529 5.264V18.1l-12.353-.018-.634-3.873h9.762v-1.356l-9.991-.017-1.727-10.758-1.357.23 1.71 10.528h-4.177v1.355l4.405.018.617 3.873-5.022-.018v1.374h5.251l1.674 10.334-6.942 2.042.387 1.303 6.767-1.99 1.18 7.307 1.357-.229-1.216-7.465 9.903-2.922-.387-1.303-9.745 2.852-1.603-9.93z"/><ellipse fill="#1A274B" transform="rotate(-89.933 3.334 29.948)" cx="3.334" cy="29.948" rx="1.427" ry="1.426"/><ellipse fill="#1A274B" transform="rotate(-89.932 13.015 29.96)" cx="13.015" cy="29.96" rx="1.427" ry="1.426"/><ellipse fill="#1A274B" transform="rotate(-89.932 28.27 5.118)" cx="28.269" cy="5.118" rx="3.031" ry="3.028"/><path d="M61.304 19.419l18.608.018V18.08l-17.463-.018 1.692-2.007 10.855.018V1.919h-1.357l-15.207-.018-.018 14.155h3.947l-1.691 2.007h-7.172v1.356h6.026l-6.026 7.13 1.04.88 3.118-3.697h5.234l-.018 12.94h1.357l.018-12.94h4.986l-.017 12.94h1.357l.017-12.94 7.93.018-.018 12.94h1.357l.018-14.313H78.52l-8.353-.018h-.951l-10.45-.017 2.538-2.923zM73.656 7.958l-13.85-.018v-4.7l13.85.017v4.7zM59.79 14.683V9.296l13.85.017v5.388l-10.115-.018H59.79z" fill="#1A274B"/><ellipse fill="#1A274B" transform="rotate(-89.932 51.043 4.907)" cx="51.043" cy="4.907" rx="3.031" ry="3.028"/><ellipse fill="#1A274B" transform="rotate(-89.932 45.962 13.003)" cx="45.962" cy="13.003" rx="3.031" ry="3.028"/><ellipse fill="#1A274B" transform="rotate(-89.932 47.986 31.595)" cx="47.986" cy="31.595" rx="5.093" ry="5.088"/><path fill="#9B4124" d="M1.833 61.004L14.379 46.18l-.987-.845L.846 60.176 0 61.162l15.718 13.275.846-1.004z"/><ellipse fill="#9B4124" transform="rotate(-44.935 18.267 47.653)" cx="18.267" cy="47.653" rx="2.379" ry="2.377"/><ellipse fill="#9B4124" transform="rotate(-44.935 20.866 53.626)" cx="20.866" cy="53.626" rx="2.379" ry="2.377"/><ellipse fill="#9B4124" transform="rotate(-44.935 39.685 47.695)" cx="39.685" cy="47.695" rx="2.379" ry="2.377"/><path d="M43.542 56.954L32.3 56.937l.017-11.638h-1.233l-.018 11.638v1.232l12.493.018-.017 16.62c4.934 0 8.934-3.98 8.951-8.91-.017-4.929-4.017-8.925-8.951-8.943zm19.736 8.944l.017-20.581h-1.25l-.019 20.58c0 4.93 4 8.945 8.934 8.945 4.934 0 8.952-3.997 8.952-8.927l-16.634-.017z" fill="#9B4124"/></g></svg>
